lib/logo_tmp/nrk-logo-nrk-p3-title-below-on-dark.svg

<svg width="36" height="36" viewBox="0 0 36 36" fill="none" xmlns="http://www.w3.org/2000/svg">
<rect x="3.46155" y="3.46152" width="29.0769" height="29.0769" fill="black"/>
<path fill-rule="evenodd" clip-rule="evenodd" d="M0 0H36V36H0V0ZM11.6261 15.9996H8.30765V28.0565H11.6261V15.9996ZM15.8336 15.9996H12.1071C12.1071 15.9996 14.2244 19.4706 14.2482 19.5143C14.4104 19.7895 14.4204 19.9584 14.262 20.2239L12.1071 23.7516H15.8336C15.8336 23.7516 17.6305 20.8171 17.8763 20.4097C18.1201 20.0022 18.1091 19.7489 17.8664 19.3305C17.6184 18.9086 17.6024 18.8825 16.1436 16.5049L16.1435 16.5047L15.8336 15.9996ZM26.2699 15.9996C26.2699 15.9996 27.379 17.7839 27.5043 17.9972C27.7477 18.4169 27.7587 18.6708 27.514 19.0797C27.3431 19.3631 25.877 21.7893 25.877 21.7893C26.145 22.2267 26.5019 22.7985 26.8156 23.3011L26.8162 23.3022L26.8172 23.3037L26.818 23.305L26.8182 23.3054L26.8184 23.3057L26.8192 23.3069C27.1415 23.8235 27.4177 24.266 27.5042 24.4131C27.7476 24.8327 27.7586 25.0867 27.514 25.4956C27.4673 25.5729 27.3724 25.7323 27.2479 25.9413C26.9164 26.4977 26.3752 27.4063 25.9772 28.0565H22.5724L24.4366 24.9966L22.503 21.7555L24.237 18.9179H20.0365L18.2942 15.9996H26.2699ZM19.8318 22.1909C19.3071 23.0472 18.4291 24.4818 18.2648 24.7616C18.0304 25.1658 18.0197 25.4105 18.2554 25.8042C18.4199 26.0772 19.3047 27.5233 19.8319 28.3846C20.3592 27.5232 21.244 26.0771 21.4085 25.8042C21.6441 25.4103 21.6335 25.1658 21.3991 24.7616C21.2345 24.4818 20.3565 23.0472 19.8318 22.1909ZM8.30765 7.43134V14.2139H10.5337V7.43134H8.30765ZM14.8424 14.2139L13.5622 8.51081C13.5007 8.20891 13.3371 7.93741 13.099 7.74183C12.8613 7.5377 12.5573 7.42727 12.244 7.43134H10.8776L12.4062 14.2139H14.8424ZM15.1768 7.43134V14.2139H17.4028V7.43134H15.1768ZM18.4012 9.8291C18.6082 9.95019 18.8442 10.0129 19.084 10.0106C19.0839 10.0106 19.0839 10.0106 19.0838 10.0106H19.0841C19.0841 10.0106 19.084 10.0106 19.084 10.0106C19.3225 10.0134 19.5572 9.95062 19.7625 9.8291C19.9647 9.71001 20.1326 9.54049 20.2497 9.33712C20.3708 9.13002 20.4336 8.89403 20.4314 8.65413C20.434 8.41568 20.3712 8.18109 20.2497 7.97587C20.1313 7.77472 19.9636 7.60703 19.7625 7.48867C19.5572 7.36737 19.3226 7.30458 19.0841 7.30715C18.8443 7.30496 18.6083 7.3677 18.4012 7.48867C18.198 7.606 18.0285 7.77383 17.9092 7.97587C17.7876 8.18104 17.7248 8.41567 17.7275 8.65413C17.7251 8.89405 17.7879 9.13008 17.9092 9.33712C18.0272 9.54138 18.1969 9.71105 18.4012 9.8291ZM20.7753 7.43134V14.2139H23.0015V7.43134H20.7753ZM25.963 11.3719C25.8737 11.2224 25.826 11.1444 25.8197 11.1378H25.8194C25.751 11.0463 25.7112 10.9367 25.7049 10.8226C25.7089 10.714 25.7419 10.6084 25.8004 10.5168L27.6923 7.43118H25.2465C25.0937 7.67977 24.9551 7.90585 24.8307 8.10943C24.7069 8.31323 24.5749 8.53137 24.4346 8.76382C24.2943 8.99627 24.1556 9.22395 24.0187 9.44685C23.8817 9.66975 23.7623 9.86238 23.6604 10.0248C23.5585 10.1872 23.4884 10.3002 23.4502 10.3639C23.3597 10.5006 23.307 10.6589 23.2975 10.8226C23.3094 10.9932 23.3653 11.1577 23.4598 11.3002C23.4979 11.3577 23.5664 11.4691 23.6653 11.6346C23.7639 11.8 23.8816 11.9926 24.0187 12.2125C24.1557 12.4325 24.2944 12.6585 24.4346 12.8908C24.5745 13.1232 24.7065 13.3398 24.8307 13.5404C24.9549 13.741 25.0935 13.9655 25.2465 14.2139H27.6923C27.5136 13.921 27.3544 13.6583 27.2146 13.4258C27.0742 13.1932 26.9245 12.9464 26.7654 12.6854C26.6063 12.4244 26.455 12.1776 26.3117 11.9451C26.1685 11.7124 26.0523 11.5213 25.963 11.3719Z" fill="#FFE100"/>
</svg>

<svg xmlns="http://www.w3.org/2000/svg" viewBox="0 0 36 36"><path fill="#000" d="M3.462 3.462h29.077v29.077H3.462z"/><path fill="#FFE100" fill-rule="evenodd" d="M0 0h36v36H0V0Zm11.626 16H8.308v12.056h3.318V16Zm4.208 0h-3.727s2.117 3.47 2.141 3.514c.162.276.172.444.014.71l-2.155 3.528h3.727s1.797-2.935 2.042-3.342c.244-.408.233-.661-.01-1.08-.248-.421-.264-.447-1.722-2.825l-.31-.505Zm10.436 0s1.109 1.784 1.234 1.997c.244.42.255.674.01 1.083l-1.637 2.71c.268.437.625 1.009.939 1.511v.001l.001.002.001.001.001.002c.323.517.599.959.685 1.106.244.42.255.674.01 1.083l-.266.445c-.332.557-.873 1.465-1.27 2.116h-3.406l1.865-3.06-1.934-3.241 1.734-2.838h-4.2L18.294 16h7.976Zm-6.438 6.19a382.4 382.4 0 0 0-1.567 2.572c-.235.404-.245.648-.01 1.042.165.273 1.05 1.72 1.577 2.58.527-.86 1.412-2.307 1.576-2.58.236-.394.226-.638-.009-1.042-.165-.28-1.043-1.715-1.567-2.571ZM8.308 7.432v6.783h2.226V7.43H8.308Zm6.534 6.783-1.28-5.703a1.342 1.342 0 0 0-.463-.77 1.287 1.287 0 0 0-.855-.31h-1.366l1.528 6.783h2.436Zm.335-6.783v6.783h2.226V7.43h-2.226ZM18.4 9.83c.207.121.443.184.683.182.239.002.473-.06.678-.182a1.357 1.357 0 0 0 .67-1.175 1.303 1.303 0 0 0-.182-.678 1.374 1.374 0 0 0-.488-.487 1.306 1.306 0 0 0-.678-.182 1.363 1.363 0 0 0-1.175.669c-.121.205-.184.44-.181.678a1.346 1.346 0 0 0 .674 1.175Zm2.374-2.398v6.783h2.227V7.43h-2.227Zm5.188 3.94a5.241 5.241 0 0 0-.143-.233.58.58 0 0 1-.115-.315.61.61 0 0 1 .095-.306l1.892-3.086h-2.445a305.985 305.985 0 0 0-.812 1.333 103.334 103.334 0 0 1-.985 1.6.928.928 0 0 0-.152.459c.011.17.067.335.162.477.038.058.106.17.205.335.099.165.217.358.354.578.137.22.275.446.416.678.14.232.271.449.396.65l.416.673h2.445c-.178-.293-.338-.556-.477-.788a198.775 198.775 0 0 0-.903-1.48c-.143-.234-.26-.425-.349-.574Z" clip-rule="evenodd"/></svg>
